X:1
T:Now He Lives
T:Now He Lives
T:Clinton Dudley Lowden
T:Ada J. Blenkhorn, 1915
T:Public Domain Courtesy of the Cyber Hymnal™
T:Public Domain Courtesy of the Cyber Hymnal™
C:Clinton Dudley Lowden
Z:Public Domain
Z:Courtesy of the Cyber Hymnal™
%%score ( 1 2 ) ( 3 4 )
L:1/8
Q:1/4=85
M:2/4
K:Bb
V:1 treble 
V:2 treble 
V:3 bass 
V:4 bass 
V:1
 [DF][DF] [DF]2 | [DB][DB] [DB]2 | [EB][EA] [EA][EB] | [Ec]4 | [EF][EF] [EF]2 | [Ec][Ec] [Ec]2 | %6
w: 1.~Sing His praise,|joy- ful praise,|glor- i- fy His|name;|Now re- joice,|heart and voice,|
w: 2.~Prince of Peace,|great in- crease|of His throne shall|be;|Right- eous- ness,|ho- li- ness,|
w: 3.~Some glad day,|hap- py day,|we shall see our|Lord;|Glo- ry share|with Him there,|
 [Dc][DB] [FB][Fc] | [Fd]4 | [FG][FG] [FG]2 | [Fd][Fd] [Fd]2 | [Fd][Ec] [Gc][Gd] | [Ge]4 | %12
w: tell- ing forth His|fame;|Ho- ly Dove,|Prince of Love,|once for us was|slain;|
w: spread from sea to|sea;|Age on age|shall en- gage|to ex- alt our|king;|
w: saith His ho- ly|Word;|Give Him praise|end- less days|on that gold- en|shore,|
 [=Ed][EG] [EG]2 | [=Ed][EG] [EG]2 | [^D^F][=EG] [EA][EB] | z x6 || %16
w: Now He lives,|now He lives,|ev- er- more to||
w: Earth and sky,|earth and sky|with His praise shall||
w: With our Lord,|with our Lord|dwell for- ev- er-||
"^Refrain" z [DFB]"^Men’s voices" z [DFB] | z [FB] z [DFB] | z [EGB] z [EGB] | %19
w: reign. *|||
w: ring. ~|~ ~|~ ~|
w: more. *|||
 z ([DFB]/[DFB]/[DFB][DFB]) |"^School" [B,D]2 [CF]2 | [DB][DB] [DA][DG] | [FA]2 [=Ec]2 | c4 | %24
w: |||||
w: ~ * * *|~ Sound|His praise who once|for us|was|
w: |||||
"^Men’s voices" z [DFB] z [DFB] | z [FB] z [DFB] | z [EGB] z [EGB] | z ([^FA]/[FA]/[FA][FA]) | %28
w: ||||
w: slain; ~|~ ~|~ ~|~ * * *|
w: ||||
"^School" [Fd]2 [FG]2 | [Ge][Ge] [Gd][Gc] | [FB]2 [EA]2 | [DB]4 |] %32
w: ||||
w: ~ Je-|sus liv- eth, ev-|er- more|to|
w: ||||
V:2
 x4 | x4 | x4 | x4 | x4 | x4 | x4 | x4 | x4 | x4 | x4 | x4 | x4 | x4 | x4 | [Ec]4 F/F/FF || x4 | %17
 x4 | x4 | x4 | x4 | x4 | x4 | (F2 E2) | x4 | x4 | x4 | x4 | x4 | x4 | x4 | x4 |] %32
V:3
 [B,,B,][B,,B,] (B,A,) | [B,,_A,][B,,A,] [B,,A,]2 | [C,G,][C,F,] F,[F,G,] | z2 F,,2 | %4
w: ~ ~ ~ *|~ ~ ~|~ ~ ~ ~|~|
 [A,C][A,C] ([A,C][G,B,]) | [F,A,][F,A,] [F,A,]2 | [B,,F,][B,,F,] [D,B,][F,A,] | B,4 | %8
w: * ~ ~ *|~ ~ ~|~ ~ ~ ~|~|
 [=B,D][B,D] ([B,D][A,C]) | [G,=B,][G,B,] [G,B,]2 | [C,G,][C,G,] [E,C][G,=B,] | C4 | %12
w: ~ ~ ~ *|~ ~ ~|~ ~ ~ ~|~|
 [C,B,][C,B,] [C,B,]2 | [C,B,][C,B,] [C,B,]2 | [C,A,][C,B,] [C,A,][C,G,] | z x6 || D,2 F,2 | %17
w: ~ ~ ~|~ ~ ~|~ ~ ~ ~||~ ~|
 D2 CB, | A,2 B,2 | F,4 | [B,,F,]2 [A,,F,]2 | [G,,G,][G,,G,] [A,,^F,][B,,G,] | [C,C]2 [C,B,]2 | %23
w: ~ Glo- ry!|Glo- ry!|Hal-|le- lu-|jah! ~ ~ ~|~ ~|
 [F,A,]4 | D,2 F,2 | D2 CB, | G,2 B,2 | D4 | [G,=B,]2 [G,B,]2 | [C,C][C,C] [D,=B,][E,C] | %30
w: ~|~ ~|~ Glo- ry!|Glo- ry!|Hal-|le- lu-|jah! * * *|
 [F,D]2 [F,C]2 | [B,,B,]4 |] %32
w: ||
V:4
 x2 B,,2 | x4 | x2 F, x | [F,A,]4 | x4 | x4 | x4 | B,4 | x4 | x4 | x4 | C4 | x4 | x4 | x4 | %15
 [F,A,]4 F,/F,/F,F, || x4 | x4 | x4 | x4 | x4 | x4 | x4 | x4 | x4 | x4 | x4 | x4 | x4 | x4 | x4 | %31
 x4 |] %32

